X:1
T:I Wish I Didn't Love You So
T:I Wish I Didn't Love You So
C:Frank Loesser
Z:All Rights Reserved
L:1/8
M:4/4
K:Eb
V:1 treble nm="Voice"
%%MIDI program 52
V:1
|:"Ebmaj7""Cm7" e8 |"Fm7" dBcd"Bb7" c2 A2 |"Ebmaj7""Bbm7""Eb7" B8- |"Abmaj7" B2 e2"Db7" E2 A2 | %4
w: I|wish I did- n't love you|so.|* My love for|
"Ebmaj7""Cm7" G8 |"Fm7" GEFE"Bb7" F2 EE- |"Ebmaj7""Cm7" E8- |"Fm7" E4"Bb7" z4 |"Ebmaj7""Cm7" e8 | %9
w: you|should have fad- ed long a- go.|||I|
"Fm7" dBcd"Bb7" c2 A2 |"Ebmaj7""Bbm7""Eb7" B8- |"Abmaj7" B2 e2"Db7" E2 A2 |"Ebmaj7""Cm7" G8 | %13
w: wish I did- n't need your|kiss,|* why must your|kiss|
"Fm7" GEFE"Bb7" F2 EE- |"Ebmaj7""Ab7" E8- |"Ebmaj7" E2 E2 E2 E2 |"Gdim7" _d4 c2 =dc- | %17
w: tor- ture me as long as this?||* I might be|smil- ing by now|
"C7" c4 B2 cB- |"Fm7" B4 A2 BA- | A8 |"Db7" A4 G2 AG- |"C7" G4 ^F2 Gd- |"Cm7" d4"F7" c2 dc- | %23
w: * with some new|* ten- der friend.||Smil- ing by now|* with my heart|* on the mend,|
"Fm7" c3 A"Bb7" d2 B2 |"Ebmaj7""Cm7" e8 |"Fm7" dBcd"Bb7" c2 A2 |"Ebmaj7""Bbm7""Eb7" B8- | %27
w: * but when I|try,|some- thing in my heart says|"No,"|
"Abmaj7" B2 e2"Db7" E2 A2 |"Ebmaj7" z2"Cm7" G6 |"Fm7" GEFE"Bb7" F2 EE- |1"Ebmaj7""Cm7" E8- || %31
w: * You're still there.|I|wish I din- n't love you so.||
"Fm7" E4"Bb7" z4 :|2"Ebmaj7" E8- || E4 z4 |] %34
w: |||

